X: 5
T: The Rose In The Heather
R: jig
M: 6/8
L: 1/8
K: Dmaj
|: FAF EFE | DFA BAF | ABd ede | fdB AFE |FAF EFE | DFA BAF | AdB AFE | FDD D3 :||: fdB ABd | faa afd | gfg fed | Bee efg |fdB ABd | faa afa | baf gfe fdd d3 :|


Tune 447	Setting 447

